X: 639
T: Ellerim Böyle Boş...
C: Şekip Ayhan Özışık
O: Turkey
F: http://compmusic.upf.edu/node/140
N: nihavent--sarki--duyek--ellerim_boyle--sekip_ayhan_ozisik
N: makam= nihavent
N: form= sarki
N: usul= duyek = 8/4
M: 8/4
L: 1/16
K: C _B _e  
Q: 1/4=192
%%MIDI tuningsystem comma53
g2 g4 f2 e4 f2 e2  | d16  | f2 f4 e2 d4 e2 d2  | c16  | \
w:  ARANAĞME  |   |   |   | 
A2 B4 A2 B4 A2 G2  | d16  | 
w:   |   | 
c2 d4 c2 B4 A2 B2  | G16  | z2 d4 d2 d4 d4  | \
w:   |   |  El le rim  böy  | 
d2 g14  | z2 g4 f2 g2 f2 a4  | f16  | 
w:  le  boş    |  Boş  mu  ka la cak  |  tı    | 
a2 a4 g2 f4 f4  | f2 a14  | z2 g4 f2 e2 d2 c4  | d16  | \
w:  Gö züm de  hep  böy  |  le  yaş    |  Yaş  mı  o la cak  |  tı    | 
z2 d4 d2 d4 d4  | d2 g14  | 
w:  El le rim  böy  |  le  boş    | 
z2 g4 f2 g2 f2 a4  | f16  | a2 a4 g2 f4 f4  | \
w:  Boş  mu  ka la cak  |  tı    |  Gö züm de  hep  böy  | 
f2 a14  | z2 g4 f2 e2 d2 c4  | d16  | 
w:  le  yaş    |  Yaş  mı  o la cak  |  tı    | 
z2 d2 d2 e4 d2 c2 B2  | c4 A12  | z4 c2 d4 c2 B2 A2  | \
w:  A ra mız da  sı ra  |  dağ lar    |  Dağ lar  mı  o la  | 
B4 G12  | z2 d2 d2 e4 d2 c2 B2  | 
w:  cak tı    |  A ra mız da  sı ra  | 
c4 A12  | z4 c2 d4 c2 B2 A2  | B4 G12  | \
w:  dağ lar    |  Dağ lar  mı  o la  |  cak tı    | 
g2 g4 f2 e4 f2 e2  | d16  | f2 f2 f4 e2 d2 e4  | 
w:  Ü zül me  sen  me le  |  ğim    |  Gün_ o lur  ka vu şu  | 
c16  | A2 B4 A2 B4 A2 G2  | d16  | c2 d4 c2 B2 A2 B4  | G16  | \
w:  ruz    |  E cel  a yır sa  bi  |  le    |  Mah şer de  bu lu şu  |  ruz    | 
g2 g4 f2 e4 f2 e2  | 
w:  ARANAĞME  | 
d16  | f2 f4 e2 d4 e2 d2  | c16  | A2 B4 A2 B4 A2 G2  | d16  | \
w:   |   |   |   |   | 
c2 d4 c2 B4 A2 B2  | 
w:   | 
G16  | z2 d4 d2 d4 d4  | d2 g14  | z2 g4 f2 g2 f2 a4  | f16  | \
w:   |  El le rim  böy  |  le  boş    |  Boş  mu  ka la cak  |  tı    | 
a2 a4 g2 f4 f4  | f2 a14  | 
w:  Gö züm de  hep  böy  |  le  yaş    | 
z2 g4 f2 e2 d2 c4  | d16  | z2 d4 d2 d4 d4  | \
w:  Yaş  mı  o la cak  |  tı    |  El le rim  böy  | 
d2 g14  | z2 g4 f2 g2 f2 a4  | f16  | 
w:  le  boş    |  Boş  mu  ka la cak  |  tı    | 
a2 a4 g2 f4 f4  | f2 a14  | z2 g4 f2 e2 d2 c4  | d16  | \
w:  Gö züm de  hep  böy  |  le  yaş    |  Yaş  mı  o la cak  |  tı    | 
z2 d2 d2 e4 d2 c2 B2  | 
w:  A ra mız da  sı ra  | 
c4 A12  | z4 c2 d4 c2 B2 A2  | B4 G12  | \
w:  dağ lar    |  Dağ lar  mı  o la  |  cak tı    | 
z2 d2 d2 e4 d2 c2 B2  | c4 A12  | z4 c2 d4 c2 B2 A2  | 
w:  A ra mız da  sı ra  |  dağ lar    |  Dağ lar  mı  o la  | 
B4 G12  | g2 g4 f2 e4 f2 e2  | d16  | f2 f2 f4 e2 d2 e4  | c16  | \
w:  cak tı    |  Ü zül me  sen  me le  |  ğim    |  Gün_ o lur  ka vu şu  |  ruz    | 
A2 B4 A2 B4 A2 G2  | 
w:  E cel  a yır sa  bi  | 
d16  | c2 d4 c2 B2 A2 B4  | G16  | |


